src/assets/duotone/CalendarCircle.svg

<svg width="24" height="24" viewBox="0 0 24 24"  xmlns="http://www.w3.org/2000/svg">
<path opacity="0.4" d="M12 22C17.5228 22 22 17.5228 22 12C22 6.47715 17.5228 2 12 2C6.47715 2 2 6.47715 2 12C2 17.5228 6.47715 22 12 22Z" />
<path d="M17.1498 9.43985C16.7298 8.46985 15.9398 7.71985 14.8498 7.37985V6.58984C14.8498 6.17984 14.5098 5.83984 14.0998 5.83984C13.6898 5.83984 13.3498 6.17984 13.3498 6.58984V7.17984H10.6398V6.58984C10.6398 6.17984 10.2998 5.83984 9.88982 5.83984C9.47982 5.83984 9.13982 6.17984 9.13982 6.58984V7.37985C8.04982 7.71985 7.2598 8.46985 6.8398 9.43985C6.6998 9.76985 6.93979 10.1498 7.29979 10.1498H16.6698C17.0498 10.1398 17.2898 9.76985 17.1498 9.43985Z" />
<path d="M17 11.1396C17.28 11.1396 17.5 11.3596 17.5 11.6396V14.1696C17.5 16.3696 16 18.1696 13.5 18.1696H10.5C8 18.1696 6.5 16.3696 6.5 14.1696V11.6396C6.5 11.3596 6.72 11.1396 7 11.1396H17Z" />
</svg>

<?xml version="1.0" encoding="UTF-8"?>
<svg width="24" height="24" viewBox="0 0 24 24" xmlns="http://www.w3.org/2000/svg">
 <path d="m12 22c5.5228 0 10-4.4772 10-10 0-5.5228-4.4772-10-10-10-5.5228 0-10 4.4772-10 10 0 5.5228 4.4772 10 10 10z" opacity=".4"/>
 <path d="m17.15 9.4398c-0.42-0.97-1.21-1.72-2.3-2.06v-0.79001c0-0.41-0.34-0.75-0.75-0.75s-0.75 0.34-0.75 0.75v0.59h-2.71v-0.59c0-0.41-0.34-0.75-0.74998-0.75-0.41 0-0.75 0.34-0.75 0.75v0.79001c-1.09 0.34-1.88 1.09-2.3 2.06-0.14 0.33 0.09999 0.70995 0.45999 0.70995h9.37c0.38-0.01 0.62-0.37995 0.48-0.70995z"/>
 <path d="m17 11.14c0.28 0 0.5 0.22 0.5 0.5v2.53c0 2.2-1.5 4-4 4h-3c-2.5 0-4-1.8-4-4v-2.53c0-0.28 0.22-0.5 0.5-0.5h10z"/>
</svg>
